X:2
T:How Insensitive
C:Antonio Carlos Jobim
L:1/4
M:C
I:linebreak $
K:D treble
"Bm6" f4- | f2 g2 |"Bbo" f4- | f2 g2 |"Ao" f3 ^e/f/ | a _a g f |$"Abø" f2 e2- | e4 |
"G6" e4- | e2 f2 |"C" e4- | e2 f2 |$"C#ø" e3 ^d/e/ |"F#7b5" g f =f e |"Bm" e2 d2- |"Bm6" d4 |$
"Am" d4- |"D7" d2 e2 |"Abø" d4- | d2 (3e d e |"G" f3/2 d/ B2- |"F#7" B2 c2 |$"Bm" d4- |"E7" d4 |
"Am" d4- |"D7" d2 e2 |"G#m" c4- |"C#7" c2 d2 |$"C#ø" c3 ^B/c/ |"F#7" e _e d c |"Bm6" c2 B2 |
"Bm6" B4 |]

